src/assets/live-menu.svg

<svg width="24" height="24" viewBox="0 0 24 24" fill="none" xmlns="http://www.w3.org/2000/svg">
<g clip-path="url(#clip0_4034_4874)">
<path d="M10.2037 18.6341H11.3519V14.3424C11.8305 14.3424 12.2372 14.186 12.5719 13.8732C12.9067 13.5603 13.0741 13.1799 13.0741 12.7318V9.513H11.9259V12.7318H11.3519V9.513H10.2037V12.7318H9.62964V9.513H8.4815V12.7318C8.4815 13.1799 8.64888 13.5603 8.98364 13.8732C9.31841 14.186 9.72509 14.3424 10.2037 14.3424V18.6341ZM14.7963 18.6341H15.9458V9.513C15.3206 9.513 14.7814 9.7231 14.3281 10.1433C13.8757 10.5635 13.6495 11.0687 13.6495 11.6588V14.8789H14.7963V18.6341ZM3 22V8.68358L12.5 2L22 8.68358V22H3ZM4.35714 20.7318H20.6429V9.31769L12.5 3.61065L4.35714 9.31769V20.7318Z" fill="#FF0000"/>
</g>
<defs>
<clipPath id="clip0_4034_4874">
<rect width="24" height="24" fill="white"/>
</clipPath>
</defs>
</svg>

<svg xmlns="http://www.w3.org/2000/svg" width="24" height="24" fill="none"><g clip-path="url(#a)"><path fill="red" d="M10.204 18.634h1.148v-4.292q.718 0 1.22-.469.502-.47.502-1.141V9.513h-1.148v3.219h-.574V9.513h-1.148v3.219H9.63V9.513H8.48v3.219q0 .672.503 1.141.501.47 1.22.47zm4.592 0h1.15V9.513q-.938 0-1.618.63-.678.63-.678 1.516v3.22h1.146zM3 22V8.684L12.5 2 22 8.684V22zm1.357-1.268h16.286V9.318L12.5 3.61 4.357 9.318z"/></g><defs><clipPath id="a"><path fill="#fff" d="M0 0h24v24H0z"/></clipPath></defs></svg>
